!!!!SEGMENT: pl-kk--kk-i-277--002-008_anonim--rorate-caeli-sanctus.krn
!!!cenid: 16xx:1090
!!!COM: Anonim
!!!COM-rismID: pe30004985
!!!CDT:
!!!CNT:
!!!OPR: Rorate caeli
!!!OTL: Sanctus
!!!OMV: 008
!!!PDT:
!!!AGN: Sacred
!!!SMS-siglum: PL-Kk
!!!SMS-shelfmark: Kk.I.277
!!!SMS-shelfwork: 002-008 M
!!!SMS-variant:
!!!SMS-altvar:
!!!NIFC-rismSourceID: 1001147171
!!!NIFC-rismChildID: 1001147188
!!!NIFC-islandoraID: pl-kk:4889
!!!URL-pdf-islandora: https://repozytorium.nifc.pl/islandora/object/pl-kk%3A4889/datastream/PDF/view
!!!URL-scan: https://polish.musicsources.pl/pl/lokalizacje/galeria/rekopisy/5895 @EN{Scan on Polish Music Sources Website} @PL{Skany w portalu Dziedzictwo Muzyki Polskiej w otwartym dostępie}
!!!ONB-nifc: UWAGA: Introitus Secundi officii od str. 5. części: 1. Rorate caeli (Rorate caeli + Benedixisti + Gloria patri), 2. Kyrie, 3. Et in terra, 4. Tollite portas, 5. Alleluia, 6. Mittit ad virginem, 7. Ave Maria, 8. Sanctus, 9. Agnus Dei, 10. Ecce virgo
!!!AIN: 1 tenor
!!!key:
**kern	**text
*Itenor	*
*I"[Tenore]	*
*I'[T]	*
*clefC4	*
*k[b-]	*
*F:	*
*M2/1	*
*met(C)	*
=1-	=1-
1c	San-
*lig	*
1d	.
=2-	=2-
1c	.
*Xlig	*
*lig	*
1A	.
=3-	=3-
1F	.
*Xlig	*
1G	.
=4-	=4-
*lig	*
1A	.
1G	.
*Xlig	*
=5-	=5-
1E	.
1F	-ct(us)
=6||	=6||
1B-	San-
*lig	*
1A	.
=7-	=7-
1G	.
*Xlig	*
*lig	*
1A	.
=8-	=8-
1G	.
*Xlig	*
1F	ct(us)
=9||	=9||
1F	San-
1A	.
=10-	=10-
1c	.
*lig	*
1d	.
=11-	=11-
1e	.
*Xlig	*
*lig	*
1d	.
=12-	=12-
1B-	.
*Xlig	*
!LO:TX:a:t=P:global:problem=rozdzielacz słów	!
1c,<	-ct(us)
=13-	=13-
1f	Do-
1d	-mi-
!LO:LB:g=original	!
=14-	=14-
1f	-bus
1e	De-
=15-	=15-
*lig	*
1f	.
1e	.
*Xlig	*
=16-	=16-
*lig	*
1d	.
1c	.
*Xlig	*
=17-	=17-
*lig	*
1d	.
1c	.
*Xlig	*
=18-	=18-
1A	.
1F	-us
=19-	=19-
*lig	*
1B-	Sab-
1A	.
*Xlig	*
=20-	=20-
1G	.
*lig	*
1A	-ba-
=21-	=21-
1G	.
*Xlig	*
1F	-oth
=22||	=22||
1A	Ple-
1G	-ni
=23-	=23-
1F	ſunt
*lig	*
1G	cae-
=24-	=24-
1A	.
*Xlig	*
1A	-li
=25-	=25-
1c	et
1d	ter-
=26-	=26-
*lig	*
1e	.
1d	.
*Xlig	*
=27-	=27-
1B-	.
1c,<	-ra
!LO:LB:g=original	!
=28-	=28-
0f	glo-
=29-	=29-
1c	.
*lig	*
1c	-ri-
=30-	=30-
1A	.
*Xlig	*
1F	-a
=31-	=31-
*lig	*
1B-	tu-
1A	.
*Xlig	*
=32-	=32-
1G	.
*lig	*
1A	.
=33-	=33-
1G	.
*Xlig	*
0F;<	a
=34-	=34-
.	.
=||	=||
1A	O-
=35-	=35-
1c	-ſan-
1d	.
=36-	=36-
*lig	*
1e	.
1d	.
*Xlig	*
=37-	=37-
1B-	.
1c,<	-na
=38-	=38-
1f	in
1f	ex-
=39-	=39-
1c	-cel-
*lig	*
1A	.
=40-	=40-
1F	.
*Xlig	*
*lig	*
1B-	.
=41-	=41-
1A	.
*Xlig	*
1G	.
=42-	=42-
*lig	*
1A	.
1G	.
*Xlig	*
!LO:LB:g=original	!
=43-	=43-
0Fl	-ſiſ
=44||	=44||
1f	Be-
*lig	*
1f	-ne-
=45-	=45-
1e	.
*Xlig	*
1d	.
=46-	=46-
1f	.
1c	-di-
=47-	=47-
*lig	*
1c	-ct(us)
1d	.
*Xlig	*
=48-	=48-
*lig	*
1e	.
1f,<	.
*Xlig	*
=49-	=49-
1f	qui
1f	ve-
=50-	=50-
1c	.
*lig	*
1c	.
=51-	=51-
1A	.
*Xlig	*
1F	.
=52-	=52-
1G	.
1A	.
=53-	=53-
*lig	*
1c	.
1d	.
*Xlig	*
=54-	=54-
1e	.
*lig	*
1d	.
=55-	=55-
1B-	.
*Xlig	*
1c	-nit
=56-	=56-
1f	in
*lig	*
1f	no-
=57-	=57-
1c	.
*Xlig	*
!LO:LB:g=original	!
1A	-mi-
=58-	=58-
1F	.
1G	-ne
=59-	=59-
*lig	*
1B-	Do-
1A	.
*Xlig	*
=60-	=60-
1G	.
*lig	*
1A	-mi-
=61-	=61-
1G	.
*Xlig	*
0Fl;;	-ni
=62||	=62||
1A	O-
*lig	*
1c	-ſan-
=63	=63
1d	.
*Xlig	*
*lig	*
1e	.
=64	=64
1d	.
*Xlig	*
1B-	.
=65	=65
1c	-na
1f	in
=66	=66
*lig	*
1f	ex-
1c	.
*Xlig	*
=67	=67
*lig	*
1A	-cel-
1F	.
*Xlig	*
=68	=68
*lig	*
1B-	.
1A	.
*Xlig	*
=69	=69
1G	.
*lig	*
1A	.
=70	=70
1G	.
*Xlig	*
0Fl;;	-ſis.
==	==
*-	*-
!!!RDF**kern: < = below
!!!RDF**kern: l = terminal long
!!!ENC: Marta Lawrence
!!!END: 2021-03-28
!!!ENC: Tomasz Grochalski
!!!END: 2021-03-14
!!!YEC: Copyright 2022 Narodowy Instytut Fryderyka Chopina (https://polishscores.org)
!!!YEM: License CC-BY-4.0 (https://creativecommons.org/licenses/by/4.0)
